X:1
T:Title
%%score { ( 1 5 ) | ( 2 3 4 ) }
L:1/8
Q:1/4=114
M:6/4
K:F
V:1 treble nm="Grand Piano"
V:5 treble 
V:2 treble 
V:3 treble 
V:4 treble 
V:1
 A2 A2 A2 A4 AA | [B,DF]4 [^CF]2 [A,=C]6 | c2 c2 c2 c4 AA | .G6 .E6 | .[DEB]6 .[CEA]6 | %5
w: Chas.~H.~Gabriel * * * * *|||||
 .[B,EG]6 [A,DF]6 | .[_A,DF]6 c4 AA |[M:5/4] G4 F2 [A,CF]4 |[M:1/4] [A,F]2 | %9
w: ||||
[M:6/4] [Fd]4 [Fd]2 [Fd]4 [Fe][Fd] | [Fc]4 [Gc]2 [Ac]4 dd | c4 A2 .[=B,FA]4 [B,F]2 | %12
w: |||
[M:5/4] [Ec-]4 c6 |[M:1/4] [CEB]2 |[M:6/4] A3 A A2 c4 FF |[M:7/4] [Ff]4 [Gf]2 [_Af]6 [F=B][FB] | %16
w: ||||
[M:6/4] [Fc]4 [Fd]2 [EA]4 [EG]2 | F12 |] %18
w: ||
V:2
 F6 F4 _E2 | z4 D,2- D,6 | F6- F4- [F,CF]2 | D,4 G,2 C,2 D,2 E,2 | %4
 z2[K:treble] B2 B2[K:bass] z4[K:treble] AA | z4 G2 D,6 | z2 E2 F2 [C,C]4- [C,-F,C]2 | %7
[M:5/4] [C,-CE]4 [C,C]2 F,,4 |[M:1/4] F,2 |[M:6/4] [B,,B,]4 [B,,B,]2 [B,,B,]4 [B,,C][B,,B,] | %10
 [F,A,]4 [F,B,]2 [F,C]4 [F,B,F][F,B,] | [F,A,F]4 [F,CF]2 z2[K:treble] G2 G,2 | %12
[M:5/4][K:bass] z2 G,2 C,2 C,4 |[M:1/4] C,2 | %14
[M:6/4] [F,CF]3 [F,CF] [F,CF]2 [_E,A,F]4 [E,A,][E,A,] | %15
[M:7/4] [D,B,]4 [D,B,]2 [^C,=B,]6 [C,_A,][C,A,] |[M:6/4] [C,A,]4 [C,B,]2 [C,C]4 [C,B,]2 | %17
 [F,,F,]4 [F,,F,]2 [F,,F,]6 |] %18
V:3
 [F,C]12 | B,,6 z6 | [F,A,]12 | x12 | C,6[K:treble][K:bass] C,6[K:treble] | ^C,6 z6 | =B,,6 .A,6 | %7
[M:5/4] B,6 z4 |[M:1/4] x2 |[M:6/4] x12 | x12 | z6 .D,6[K:treble] |[M:5/4][K:bass] A,,4 z2 z4 | %13
[M:1/4] x2 |[M:6/4] x12 |[M:7/4] x14 |[M:6/4] x12 | x12 |] %18
V:4
 x12 | z6 F,,6 | x12 | x12 | x2[K:treble] x4[K:bass] x4[K:treble] x2 | x12 | x12 |[M:5/4] x10 | %8
[M:1/4] x2 |[M:6/4] x12 | x12 | x8[K:treble] x4 |[M:5/4][K:bass] x10 |[M:1/4] x2 |[M:6/4] x12 | %15
[M:7/4] x14 |[M:6/4] x12 | x12 |] %18
V:5
 x12 | x12 | x12 | [=B,F]4- [B,DF]2 [_B,G]2- [B,-DG-]2 [B,CG]2 | x12 | x12 | z6 F6 |[M:5/4] x10 | %8
[M:1/4] x2 |[M:6/4] x12 | x12 | x12 |[M:5/4] C2 z2 [A,F]2 [B,G]4 |[M:1/4] x2 |[M:6/4] x12 | %15
[M:7/4] x14 |[M:6/4] x12 | [A,C]4 [B,D]2 [A,C]6 |] %18

